icons/outline/abacus-off.svg

<!--
category: Math
tags: [abacus, math, counting, adding up]
unicode: "f3b6"
version: "1.94"
-->
<svg
  xmlns="http://www.w3.org/2000/svg"
  width="24"
  height="24"
  viewBox="0 0 24 24"
  fill="none"
  stroke="currentColor"
  stroke-width="2"
  stroke-linecap="round"
  stroke-linejoin="round"
>
  <path d="M5 5v16m14 0v-2m0 -4v-12m-14 4h2m4 0h8m-14 8h10m-7 -2v4m3 -4v4m5 -1v1m-2 -12v4m-3 -4v2m-3 1v1m-5 12h18m-18 -18l18 18" />
</svg>

<!--
category: Math
tags: [abacus, math, counting, adding up]
unicode: "f3b6"
version: "1.94"
-->
<svg
  xmlns="http://www.w3.org/2000/svg"
  width="24"
  height="24"
  viewBox="0 0 24 24"
  fill="none"
  stroke="currentColor"
  stroke-width="2"
  stroke-linecap="round"
  stroke-linejoin="round"
>
    <path d="M5 5v16M19 21v-2m0 -4v-12M5 7h2m4 0h8M5 15h10M8 13v4M11 13v4M16 16v1M14 5v4M11 5v2M8 8v1M3 21h18M3 3l18 18" />
</svg>
